assets/wee.svg

<?xml version="1.0" encoding="utf-8"?><!-- Uploaded to: SVG Repo, www.svgrepo.com, Generator: SVG Repo Mixer Tools -->
<svg  width="800px" height="800px" viewBox="0 0 24 24"  xmlns="http://www.w3.org/2000/svg">
<path d="M20 14V7C20 5.34315 18.6569 4 17 4H12M20 14L13.5 20M20 14H15.5C14.3954 14 13.5 14.8954 13.5 16V20M13.5 20H7C5.34315 20 4 18.6569 4 17V12" stroke="brown" stroke-width="2" stroke-linecap="round" stroke-linejoin="round"/>
<path  d="M4 4L6.5 6.5M9 9L6.5 6.5M6.5 6.5L9 4M6.5 6.5L4 9" stroke="orangered" stroke-width="2" stroke-linecap="round" stroke-linejoin="round"/>
</svg>

<svg xmlns="http://www.w3.org/2000/svg" width="800" height="800" viewBox="0 0 24 24" stroke-width="2" stroke-linecap="round" stroke-linejoin="round" xmlns:v="https://vecta.io/nano"><path d="M20 14V7a3 3 0 0 0-3-3h-5m8 10l-6.5 6m6.5-6h-4.5a2 2 0 0 0-2 2v4m0 0H7a3 3 0 0 1-3-3v-5" stroke="brown"/><path d="M4 4l2.5 2.5M9 9L6.5 6.5m0 0L9 4M6.5 6.5L4 9" stroke="#ff4500"/></svg>
